X:1
T:Remember How Much I Love You
T:Remember How Much I Love You
T:Mary L. Stocks
T:Ada Ruth Habershon, 1910
T:Public Domain Courtesy of the Cyber Hymnal™
T:Public Domain Courtesy of the Cyber Hymnal™
C:Mary L. Stocks
Z:Public Domain
Z:Courtesy of the Cyber Hymnal™
%%score ( 1 2 ) 3 ( 4 5 )
L:1/8
Q:1/4=85
M:6/8
K:Bb
V:1 treble 
V:2 treble 
V:3 treble 
V:4 bass 
V:5 bass 
V:1
 D | DGB BAG | GEG D2 D | DGB BAG | G^FG A2 ||[K:G] D | DBA GGD | EGE D2 D | DGB d2 G | F3 G2 || %10
w: 1.~I|came to my Lord with my|bur- den of care, And|fell at His feet, ’twas too|hea- vy to bear.|He|whis- pered to me as I|cried to Him there, “Re-|mem- ber how much I|love you.”|
w: 2.~“You|sure- ly for- get all the|bur- den of woe I|bore for your sake on the|cross long a- go.|In|fu- ture, when- ev- er the|bit- ter tears flow, Re-|mem- ber how much I|love you.”|
w: 3.~The|mo- ment I heard the sweet|words which He said, My|un- be- lief van- ished, my|ter- rors all fled.|On|this blest as- sur- ance I|pil- low my head, “Re-|mem- ber how much I|love you.”|
w: 4.~The|words of my Lord turned the|storm in- to calm, The|thought of His love soothed my|heart- ache like balm.|I|know that the fu- ture can|bring me no harm, “Re-|mem- ber how much I|love you.”|
w: 5.~And|so when the sor- rows of|oth- ers I feel, I|can to my Sav- ior’s com-|pas- sion ap- peal.|That|He may to them this great|sec- ret re- veal, “Re-|mem- ber how much I|love you.”|
"^Refrain" D | [B,G][CG][CA] [B,G]2 D | [B,G][CG][CA] [B,G]2 [DB] | [DA][DG][DB] (AG)[B,D] | %14
w: ||||
w: ||||
w: The|way may be rough, but|this is e- nough, Re-|mem- ber how much * I|
w: ||||
w: ||||
 [CA]3 [B,G]6 |] %15
w: |
w: |
w: love you.|
w: |
w: |
V:2
 x | x6 | x6 | x6 | x5 ||[K:G] x | x6 | x6 | x6 | x5 || D | x5 D | x6 | x3 D2 x | x9 |] %15
V:3
 D | [G,B,D] z2 [DGB] z2 | [CEG] z2 [B,DG]2 z | [B,DG]2 z [DGB] z2 | [^CGB] z2 [D^FA]2 ||[K:G] D | %6
 [B,DG]2 [CDFA] z [B,DG] z | z [CEG] z [B,DG]2 D | [B,DG]2 z [GBd]2 B | [CDF]3 [B,DG]2 || x | x6 | %12
 x6 | x6 | x9 |] %15
V:4
 D, |{G,,} D,G,B, B,A,G, |{C,} G,E,G,{G,,} D,2 D, |{G,,} D,G,B, B,A,G, |{E,} G,^F,G,{D,} A,2 || %5
[K:G] D, |{G,,} F,B,A, G,G,D, | E,G,E,{G,,} D,2 D, |{D,,} D,G,B,{D,} D2 G, | [D,A,]3 [G,,G,]2 || %10
 [F,A,] | G,[E,G,][D,F,] G,2 [G,B,] | G,[E,G,][D,F,] G,2 G, | [D,C][D,B,][D,G,] (CB,)[D,G,] | %14
 [D,F,]3 [G,,G,]6 |] %15
V:5
 x | x6 | x6 | x6 | x5 ||[K:G] x | x6 | x6 | x6 | x5 || x | G, x G,2 x2 | G, x G,2 G, x | %13
 x3 D,2 x | x9 |] %15

